icons/parent-twitter.svg

<?xml version="1.0" encoding="UTF-8"?>
<svg width="32px" height="32px" viewBox="0 0 32 32" version="1.1" xmlns="http://www.w3.org/2000/svg" xmlns:xlink="http://www.w3.org/1999/xlink">
    <!-- Generator: Sketch 62 (91390) - https://sketch.com -->
    <title>twitter-icon-green</title>
    <desc>Created with Sketch.</desc>
    <defs>
        <polygon id="path-1" points="0 0 18 0 18 15 0 15"></polygon>
    </defs>
    <g id="twitter-icon-green" stroke="none" stroke-width="1" fill="none" fill-rule="evenodd">
        <g id="Group-6" transform="translate(1.000000, 1.000000)">
            <circle id="Oval-Copy" stroke="#019A78" stroke-width="1.5" cx="15" cy="15" r="15"></circle>
            <g id="Group-3" transform="translate(6.750000, 8.250000)">
                <mask id="mask-2" fill="white">
                    <use xlink:href="#path-1"></use>
                </mask>
                <g id="Clip-2"></g>
                <path d="M17.5029714,0.277297164 C16.7892931,0.711085707 15.99923,1.0265402 15.158093,1.19631712 C14.484189,0.460359637 13.5244823,0 12.4624772,0 C10.4228368,0 8.76888695,1.69591547 8.76888695,3.78638077 C8.76888695,4.08360625 8.8014296,4.37264413 8.86470697,4.64978681 C5.79560406,4.49159612 3.07407469,2.98461348 1.25274118,0.693474634 C0.93529973,1.25285794 0.752548672,1.9030773 0.752548672,2.59670642 C0.752548672,3.91058518 1.40460686,5.07013533 2.39595226,5.7486251 C1.79029747,5.72962368 1.2211025,5.55876537 0.723471215,5.2751344 C0.722567253,5.29073719 0.722567253,5.30680344 0.722567253,5.32317864 C0.722567253,7.15735649 1.99579825,8.68843848 3.68530392,9.03556201 C3.37524482,9.12222703 3.04876375,9.16888092 2.71188711,9.16888092 C2.47399434,9.16888092 2.24257998,9.14462708 2.01764401,9.10044491 C2.48770444,10.6049558 3.85087969,11.6997775 5.46761639,11.7306742 C4.20342501,12.7462461 2.61124596,13.3515108 0.880911328,13.3515108 C0.582905067,13.3515108 0.288966637,13.3340543 0,13.2989866 C1.63436396,14.3729531 3.57486985,15 5.66076301,15 C12.4534376,15 16.1681203,9.22959278 16.1681203,4.22603967 C16.1681203,4.06197862 16.1649564,3.89868998 16.157574,3.73648273 C16.8786347,3.2019712 17.5053819,2.53506766 18,1.77578323 C17.3381489,2.07717976 16.6261279,2.28032503 15.8791536,2.37193351 C16.6414952,1.9030773 17.2269615,1.16140394 17.5029714,0.277297164" id="Fill-1" fill="#019A78" mask="url(#mask-2)"></path>
            </g>
        </g>
    </g>
</svg>

<svg width="32" height="32" xmlns="http://www.w3.org/2000/svg" xmlns:xlink="http://www.w3.org/1999/xlink"><defs><path id="a" d="M0 0h18v15H0z"/></defs><g transform="translate(1 1)" fill="none" fill-rule="evenodd"><circle stroke="#019A78" stroke-width="1.5" cx="15" cy="15" r="15"/><g transform="translate(6.75 8.25)"><mask id="b" fill="#fff"><use xlink:href="#a"/></mask><path d="M17.503.277a7.288 7.288 0 01-2.345.92A3.647 3.647 0 0012.462 0C10.422 0 8.77 1.696 8.77 3.786c0 .298.032.587.096.864-3.07-.158-5.79-1.665-7.612-3.957-.318.56-.5 1.21-.5 1.904a3.81 3.81 0 001.643 3.152 3.598 3.598 0 01-1.673-.474v.048c0 1.834 1.273 3.365 2.962 3.713a3.611 3.611 0 01-1.667.064c.47 1.505 1.833 2.6 3.45 2.63A7.295 7.295 0 010 13.3 10.268 10.268 0 005.66 15c6.793 0 10.508-5.77 10.508-10.774 0-.164-.003-.327-.01-.49A7.625 7.625 0 0018 1.776a7.232 7.232 0 01-2.12.596A3.785 3.785 0 0017.502.277" fill="#019A78" mask="url(#b)"/></g></g></svg>
